build/img/adress.svg

<svg width="24" height="24" viewBox="0 0 24 24" fill="none" xmlns="http://www.w3.org/2000/svg">
<path d="M9.30684 19.8943V17.1342C9.30682 16.4322 9.90927 15.8617 10.6557 15.857H13.3899C14.1399 15.857 14.7478 16.4288 14.7478 17.1342V19.9028C14.7477 20.4989 15.2535 20.986 15.8871 21H17.7099C19.527 21 21 19.6146 21 17.9056V10.0541C20.9903 9.38174 20.6547 8.75041 20.0886 8.33973L13.8547 3.61677C12.7626 2.79441 11.2101 2.79441 10.118 3.61677L3.91139 8.3483C3.34319 8.75732 3.007 9.3897 3 10.0626V17.9056C3 19.6146 4.47304 21 6.29013 21H8.11291C8.76223 21 9.28861 20.5049 9.28861 19.8943" stroke="#36373C" stroke-width="1.5" stroke-linecap="round" stroke-linejoin="round"/>
</svg>

<svg width="24" height="24" fill="none" xmlns="http://www.w3.org/2000/svg"><path d="M9.307 19.894v-2.76c0-.702.602-1.272 1.349-1.277h2.734c.75 0 1.358.572 1.358 1.277v2.769c0 .596.506 1.083 1.14 1.097h1.822c1.817 0 3.29-1.385 3.29-3.094v-7.852a2.161 2.161 0 0 0-.911-1.714l-6.234-4.723a3.138 3.138 0 0 0-3.737 0L3.911 8.348A2.144 2.144 0 0 0 3 10.063v7.843C3 19.615 4.473 21 6.29 21h1.823c.65 0 1.176-.495 1.176-1.106" stroke="#36373C" stroke-width="1.5" stroke-linecap="round" stroke-linejoin="round"/></svg>
